X: 1
T: Ye Banks and Braes
% Nottingham Music Database
S: Kevin Briggs
M: 3/4
L: 1/4
K: D
A \
| "D"d2d | "A7"e>de | "D"faf | "A7"e>de \
| "D"f>ed | "G"dBA | "Em"ABd | "A7"e2A |
| "D"d2d | "A7"e>de | "D"f<af | "A7"e>de \
| "D"f>ed | "G"d<BA | "A7"ABd | "D"d2f ||
|| "D"a2"G"b | "D"afd | "D"a2"G"b | "D"afd \
| "D"afd | "D"afd | "Em"b>ag/f/ | "A7"feA |
| "D"d2d | "A7"e>de | "D"f<af | "A7"e>de \
| "D"f>ed | "G"d<BA | "A7"ABd | "D"d2 |]

